X: 1
T: Le'Aliza
C: John Chambers 1975/5
N: Written for a friend who was leaving to live in Israel.
L: 1/8
M: C
K: AM
|:\
"Am"e2ed edc2 | c2cB A2Bc |\
"G"B2Bc d2cB | "Am"A2Ac e4 |\
"Am"e2ed edc2 | c2cB A2Bc |
"G"B2Bc d2cB | "Am"A2Ac e2dc |\
"G"d2dc B2AG |1 "Am"A4 z4 :|2 "Am"A4 z2eg |:\
"Am"a2eg a2eg | a2ag e2dc |\
"C"e2e2 e2dc |
"G"d2dc B2AG |\
"Am"A2Ac e2e2 | e2dc A2Bc |\
"G"B2Bc d2cB | "Am"A2Ac e2dc |\
"G"d2dc B2AG | "Am"A4 z4 :|

%%sep 1 1 500

